X: 17
T: Joe Burke's
B: begged borrowed and stolen
M:6/8
L:1/8
R: jig
Q: 3/8=100
K:Dmaj
V:1 
|:A/G/ | EAA ABd | ege dBA | GEG G2 B | dBA GED |
EAA ABd | ege def |"G" g2 d "Em"edB | BAG "Am"A2 :||
 "Am"eag e2 d | eaa age | "G"gag d2 d | egg ged |
"Am"eag e2 d | e aa age | "G"g2 d "Em"edB | BGG "Am"A2 :||
% abcbook-tune_id 62828a3a1ece6cf9c60bf4a7


% abcbook-boost 0
% abcbook-tablature 
% abcbook-transpose 
% abcbook-lastupdated 1652725431052
% abcbook-soundfonts 
% abcbook-repeats 3
% abc-sessionorg_id 
% abc-sessionorg_setting 0
% abc-sessionorg_setting_id undefined
% abc-boost 1
% Rhythm Jig
% Titles One title
% Transcriptions Only 1 transcription
% Movement Has some stepwise movement
% Mode major
% Key D
% Time_signature 6/8
% Has_accompaniment_chords No chords

